X: 39694
T: Teresa Halpin's
R: reel
M: 4/4
K: Gmajor
G2 GA GABd|e2 de gedB|e2 de gedB|~A3G AcBA|
~G3A GABd|e2 de gedB|e2 de B2 AB|~G3A GcBA|
G2 GA GABd|e2 de gedB|e2 de gedB|~A3G AcBA|
~G3A GABd|e2 de gedB|e2 de B2 AB|G2 GA GABd||
~g3g a2 ga|bagf edBd|e2 de gedB|A2 AG A2 Bd|
g2 gg a2 ga|bagf edBd|egde BdAB|G2 GA GABd|
g2 gg a2 ga|bagf edBd|e2 de gedB|A2 AG AcBA|
~G3A GABd|e2 de gedB|e2 de B2 AB|~G3A GcBA||
"Fiddle setting, an octave below main melody"
G,3 A, G,A,B,D|E2 DE GEDB,|E2 DE GEDB,|A,3 G, A,CB,A,|
G,3 A, G,A,B,D|E2 DE GEDB,|E2 DE B,2 A,B,|G,3 A, G,CB,A,|
G,3 A, G,A,B,D|E2 DE GEDB,|E2 DE GEDB,|A,3 G, A,CB,A,|
G,3 A, G,A,B,D|E2 DE GEDB,|E2 DE B,2 A,B,|G,2 G,A, G,A,B,D||
G2 GG A2 GA|BAGF EDB,D|E2 DE GEDB,|A,2 A,G, A,CB,A,|
G2 GG A2 GA|BAGF EDB,D|EGDE B,DA,B,|G,2 G,A, G,A,B,D|
G2 GG A2 GA|BAGF EDB,D|E2 DE GEDB,|A,2 A,G, A,CB,A,|
G,3 A, G,A,B,D|E2 DE GEDB,|E2 DE B,2 A,B,|G,3 A, G,CB,A,||

